!!!!SEGMENT: pl-wtm--r-392-1-m--001_moniuszko-stanislaw--bagatelle-niezabudka.krn
!!!cenid: 18xx:1673
!!!COM: Moniuszko, Stanisław
!!!COM-rismid: pe30008351
!!!CDT: 1819/05/05-1872/06/04
!!!CNT: Polish
!!!OTL: Bagatelle Niezabudka
!!!PDT:
!!!AGN: Secular
!!!SMS-siglum: PL-Wtm
!!!SMS-shelfmark: R 392/1/M
!!!SMS-shelfwork: 001 W
!!!SMS-variant:
!!!SMS-altvar:
!!!NIFC-rismid: 1001099422
!!!URL-scan: http://repozytorium.nifc.pl/skany/pl-wtm-nut--r392m
!!!ONB-nifc:
!!!key:
**kern	**kern	**dynam
*part1	*part1	*part1
*staff2	*staff1	*
*Iforte	*Iempty	*
*I"Fortepian	*	*
*I'pf	*	*
*clefF4	*clefG2	*
*k[]	*k[]	*
*A:	*A:	*
*M6/8	*M6/8	*
=1	=1	=1
!	!LO:TX:a:t=P:problem:w źródle "Bagatelle. Niezabudka" zapisane przed pierwszym taktem, pomiędzy pięcioliniami	!
!	!LO:TX:a:i:t=Allegretto	!
!	!LO:TX:a:i:t=Bagatelle.\n= Niezabudka.	!
8f 8c 8F\	8aa 8ee-X 8a\	f
8r	8r	.
8r	8r	.
(>4.F (>4.FF/	(>4.a 4.e-X/	p
=2	=2	=2
*	*^	*
8F) 8BB-X\)	4b-X/	8d\	.
8r	.	8rc	.
8r	8a/	8rc	.
!	!LO:TX:t=P:problem:łuk do nuty w innej warstwie	!	!
4.E 4.EE/	4g#X/	N(<4.d\	.
.	8ee/	.	.
=3	=3	=3	=3
8E 8AA\	8a 8c/N)	2ryy	.
8r	8rb	.	.
8E 8AA\	8a 8c/	.	.
8E 8AA\	8a 8c/	.	.
8r	8rb	8ryy	.
8E 8AA\	8e/	8c\	.
=4	=4	=4	=4
8E 8AA\	4a/	8c\	.
8r	.	8rc	.
8E 8AA\	8g#X/	8c\	.
8E 8AA\	4a/	8c\	.
8r	.	8rc	.
8E 8AA\	8b/	8c\	.
=5	=5	=5	=5
8E 8AA\	4cc/	8c\	.
8r	.	8rc	.
8E 8AA\	8b/	8c\	.
8E 8AA\	4cc/	8c\	.
8r	.	8rc	.
8E 8AA\	8dd/	8d\	.
!!LO:LB:g=original
=6	=6	=6	=6
*	*	*^	*
!	!	!	!	!LO:HP:b
8c 8A\	4ee/	8a 8e\	4ryy	<
8r	.	8re	.	.
8c 8A\	8ee/	8a 8e\	8ryy	.
4c 4A\	4.ff/	4a 4f\	4.d#X\	[
!	!	!	!	!LO:HP:b
.	.	.	.	>
8c 8A\	.	8a 8f\	.	.
*	*	*v	*v	*
=7	=7	=7	=7
8c 8A\	4.ee/	8a 8e\	]
8r	.	8rg	.
8E/	.	8rg	.
4EE/	8ree	8rc	.
.	8e/L	4c\	.
8E\	8a/J	.	.
=8	=8	=8	=8
4BB/	4.a/	[>4.d [>4.B\	.
8E\	.	.	.
4EE/	8g#X/	8d] 8B\]	.
.	8e/L	4d\	.
8E\	8cc/J	.	.
=9	=9	=9	=9
!	!	!	!LO:HP:b
4AA/	4b/	4.e 4.c\	>
8A\	8a/	.	]
!	!	!	!LO:HP:b
4.F#X 4.FF#X/	4a/	4.cc 4.d\	>
.	8a-X/	.	]]
=10	=10	=10	=10
4G 4GG\	8g/L	4e\	.
.	8f#X/	.	.
8G\	8g/J	8e\	.
4GG/	4ee/	4b 4f#\	.
8G\	8dd/	8g\	.
*	*v	*v	*
=11	=11	=11
4G 4C\	8cc 8g 8e/	.
.	8r	.
8G 8GG\	8r	.
4E 4C\	8r	.
.	8dd#XL 8d#X/	.
8G 8GG\	8eeJ 8e/	.
!!LO:LB:g=original
=12	=12	=12
!	!	!LO:HP:b
4F 4BB\	(>4aa (>4a\	>
8G 8GG\	8gg 8g\))	]
4F 4BB\	8r	.
.	8cc#XL 8c#X/	.
8G 8GG\	8ddnJ 8dn/	.
=13	=13	=13
!	!	!LO:HP:b
4E 4C\	(>4aa 4a\	>
8G 8GG\	8gg 8g\)	]
4E 4C\	8r	.
.	8b\L	.
8G 8GG\	8cc\J	.
=14	=14	=14
*	*^	*
!	!	!	!LO:HP:b
4F 4BB\	(<4ee/	4.ryy	>
8G 8GG\	8dd/)	.	]
!	!	!	!LO:HP:b
4A 4F 4BB\	4a-X/	[4a-\	>
8G 8GG\	8dd/	8a-\]	]
=15	=15	=15	=15
4E 4C\	4g/	8g\	.
.	.	8rc	.
8G 8GG\	16a/LL	8rc	.
.	16b/JJ	.	.
4E 4C\	8cc/	8e\	.
.	8eeL 8e/	4ryy	.
8G 8GG\	8ffJ 8f/	.	.
*	*v	*v	*
=16	=16	=16
!	!	!LO:HP:b
4F 4BB\	4aa 4a/	>
8G 8GG\	8gg 8g/	]
4F 4BB\	8r	.
.	8cc#XL 8c#X/	.
8G 8GG\	8ddJ 8d/	.
=17	=17	=17
!	!	!LO:HP:b
4E-X 4C\	4aa-X 4a-X\	>
8G 8GG\	8gg 8g\	]
4E- 4C\	8r	.
!	!	!LO:DY:b:t=pp.
.	8ee-X\L	pp
8r	8dd\J	.
!!LO:LB:g=original
=18	=18	=18
*	*^	*
!	!	!	!LO:DY:b:rj:t=pp.
8d#X 8A\	4.cc/	8f\	pp
8r	.	8rc	.
8d# 8A\	.	8f\L	.
8e- 8G\	8cc/L	8g\J	.
8r	8ee-X/	8rc	.
!	!	!LO:TX:b:t=P:cross-measure beam:problem	!
8e- 8G\	8dd/J	8g\L	.
=19	=19	=19	=19
8d#X 8F#X\	4.cc/	8g#X\J	.
8r	.	8rc	.
8d# 8F#\	.	8g#\L	.
8d# 8Fn\	8cc/L	8a\J	.
8r	8ee-X/	8rc	.
8d# 8F\	8dd/J	8a\	.
*	*v	*v	*
=20	=20	=20
4e 4E\	4cc 4a/	.
8e 8E\	8cc 8a/	.
8e 8E\L	8ccL 8a/	.
8d 8E\	8b 8g#X/	.
8c 8E\J	8a/J	.
=21	=21	=21
*	*^	*
4.B 4.E\	[>4ee/	8.g#X\L	.
.	.	16a\L	.
.	16ee/LL]	16a#X\	.
.	16b/JJ	16b\JJ	.
!	!	!	!LO:HP:b
4.d#X 4.B\	4gg/	4b\	>
.	8ff/	8a#\	]
*	*v	*v	*
=22	=22	=22
8e 8B 8E\	8ee 8g#X/	.
.	8qe/	.
!	!	!LO:DY:b:t=ppp.
8r	8e/L	ppp
.	8qf#X/	.
8r	8f#/J	.
4r	8r	.
.	8qg#/	.
.	8g#/L	.
.	8qa/	.
8r	8a/J	.
=23	=23	=23
!LO:TX:b:i:t=V&colon; S&colon;_	!	!
2.r	8r	.
.	8qb/	.
.	8b\	.
.	8r	.
.	8r	.
.	8qb#X/	.
.	8b#\	.
.	8r	.
!!LO:PB:g=original
==24	==24	==24
*k[f#c#g#]	*k[f#c#g#]	*
*A:	*A:	*
8A\L	8r	.
.	8qcc#/	pp
8e 8c#\	8cc#\	.
8eJ 8c#\	8r	.
8E\L	8r	.
.	8qff#/	.
8e 8c#\	8ff#\	.
8eJ 8c#\	8r	.
=25	=25	=25
8A\L	8r	.
.	8qee/	.
8e 8c#\	8ee\L	.
8eJ 8c#\	8a\J	.
8G#\L	(>4a#X\	.
8e 8d\	.	.
8eJ 8d\	8b\)	.
=26	=26	=26
8E\L	8r	.
.	8qdd/	.
8e 8G#\	8dd\	.
8eJ 8G#\	8r	.
8E\L	8r	.
.	8qgg#/	.
8e 8d\	8gg#\	.
8eJ 8d\	8r	.
=27	=27	=27
8G#\L	8r	.
.	8qff#/	.
8d 8B\	8ff#\L	.
8dJ 8B 8E\	8ee\J	.
!LO:TX:t=P:problem:mixed beam	!	!
8AA/L	(>4b#X\	.
8c#\ 8A\ 8E\	.	.
8c#\J 8A\ 8E\	8cc#\)	.
=28	=28	=28
!	!	!LO:HP:b
8C#\L	8r	<
.	8qcc#/	.
8B 8G#\	8cc# 8e#X/	.
8BJ 8G#\	8r	.
!LO:TX:t=P:problem:mixed beam	!	!
8FF#/L	8r	.
.	8qff#/	.
8A\ 8F#\	8ff# 8f#/	.
8A\J 8F#\	8r	[
!!LO:LB:g=original
=29	=29	=29
!	!	!LO:DY:b:t=for
8GG#/L	16r	f
.	16gg#KL 16g#/	.
8B 8E#X 8C#/	8ff##X 8f##y'/	.
8BJ 8E# 8C#/	8gg#J 8g#'/	.
!	!	!LO:HP:b
8AA/L	4bb 4b\	>
8A 8F# 8C#/	.	.
8AJ 8F# 8C#/	8aa 8a\	]
=30	=30	=30
8BB\L	8r	p
.	8qgg#/	.
8B 8F# 8D\	8gg#'\L	.
8dJ 8B 8F#\	8ff#'\J	.
!LO:TX:t=P:problem:mixed beam	!	!
8EE/L	8.ff#^<\L	.
8c#\ 8A\ 8E\	.	.
.	16ee\L	.
8c#\J 8A\ 8E\	16cc#\	.
.	16a\JJ	.
=31	=31	=31
!LO:TX:t=P:problem:mixed beam	!	!
8EE/L	8.cc#/L	.
8d\ 8B\ 8E\	.	.
.	16b/L	.
8d\J 8B\ 8E\	16g#/	.
.	16e/JJ	.
16AA\LL	8a/	.
16E\	.	.
16c#\	8r	.
16E\	.	.
16c#\	(>8eee 8ee\	.
16E\JJ	.	.
=32	=32	=32
!	!	!LO:HP:b
16AA\LL	4ddd 4dd\	>
16E\	.	.
16c#\	.	.
16E\	.	.
16c#\	8ccc# 8cc#\	.
16E\JJ	.	.
16AA\LL	4bb 4b\	.
16E#X\	.	.
16c#\	.	.
16E#\	.	.
!	!LO:TX:t=P:problem:na łuku znak X	!
16c#\	8aa 8a\	.
16E#\JJ	.	.
=33	=33	=33
16AA\LL	4gg# 4g#\	]
!	!	!LO:HP:b
16F#\	.	>
16d\	.	.
16F#\	.	]
16d\	8ff# 8f#\)	.
16F#\JJ	.	.
*rep	*	*
16AA\LL	8r	.
16F#\	.	.
16d\	(>8gg#L 8g#\	.
16F#\	.	.
16d\	8aaJ 8a\	.
!	!LO:TX:a:t=x	!
16F#\JJ	.	.
*Xrep	*	*
=34	=34	=34
16AA\LL	(>4ccc# 4cc#\	.
!	!	!LO:HP:b
16E\	.	>
16d\	.	.
16E\	.	.
16d\	8bb 8b\)	]
16E\JJ	.	.
*rep	*	*
16AA\LL	(>4ff# 4f#\	.
!	!	!LO:HP:b
16E\	.	>
16d\	.	.
16E\	.	.
16d\	8gg# 8g#\)	]
16E\JJ	.	.
!	!LO:TX:a:t=x	!
*Xrep	*	*
!!LO:LB:g=original
=35	=35	=35
16AA\LL	4aa 4a\	.
16E\	.	.
16c#\	.	.
16E\	.	.
16c#\	16gg#LL 16g#\	.
16E\JJ	16ff#JJ 16f#\	.
16AA\LL	8ee 8e\)	.
16E\	.	.
16c#\	8r	.
16E\	.	.
16c#\	8eee 8ee\	.
16E\JJ	.	.
=36	=36	=36
16AA\LL	4ddd 4dd\	.
16E#X\	.	.
16c#\	.	.
16E#\	.	.
16c#\	8ccc# 8cc#\	.
16E#\JJ	.	.
*rep	*	*
16AA\LL	4bb 4b\	.
16E#\	.	.
16c#\	.	.
16E#\	.	.
16c#\	8aa 8a\	.
16E#\JJ	.	.
*Xrep	*	*
=37	=37	=37
16GG#\LL	4gg# 4g#\	.
16F#\	.	.
16c#\	.	.
16F#\	.	.
16c#\	8ff# 8f#\	.
16F#\JJ	.	.
16GG#\LL	8r	.
16F#\	.	.
16c#\	8gg#L 8g#\	.
16F#\	.	.
16c#\	8aaJ 8a\	.
16F#\JJ	.	.
=38	=38	=38
16BB\LL	4ccc# 4cc#\	.
16F#\	.	.
16A\	.	.
16d#X\	.	.
16A\	8bb 8b\	.
16F#\JJ	.	.
16BB\LL	4ff# 4f#\	.
16F#\	.	.
16A\	.	.
16d#X\	.	.
16A\	8gg# 8g#\	.
16F#\JJ	.	.
=39	=39	=39
16E\LL	8ee 8e\	.
16G#\	.	.
16B\	8r	.
16e\	.	.
16B\	8r	.
16G#\JJ	.	.
4E\	4r	.
8r	8ee\	.
=40	=40	=40
8D\L	(>4ff#\	.
8E\	.	.
8G#\J	8ee\	.
8B\	8e/)	.
8r	8r	.
8r	8dd#X\	.
!!LO:LB:g=original
=41	=41	=41
!	!	!LO:HP:b
8C#\L	(>4ff#\	>
8E\	.	.
8A\J	8ee\	.
4c#\	4e/)	]
!	!LO:TUP:b:problem:klamra łukowa	!
8r	24e/LL	.
.	24f#/	.
.	24e/JJ	.
=42	=42	=42
!	!	!LO:HP:b
16BB\LL	16d#X/LL	<
16E\	16dd#X/	.
16G#\	16e/	.
16d\	16ee/	.
16G#\	16f#/	.
16E\JJ	16ff#/JJ	.
16BB\LL	16g#\LL	.
16E\	16gg#\	.
16G#\	16a\	.
16d\	16aa\	.
16G#\	16b\	.
16E\JJ	16bb\JJ	[
=43	=43	=43
16AA\LL	16b#X\LL	.
16E\	[>16bb#X\J	.
16A\	8bb#] 8b#\	.
16c#\	.	.
16A\	8ccc#J 8cc#\	.
16E\JJ	.	.
4AA/	8eee 8ee\	.
.	8r	.
8r	8ddd#X 8dd#X\	.
=44	=44	=44
!	!	!LO:HP:b
(>16D\LL	(>4fff# 4ff#\	>
16E\	.	.
16G#\	.	.
16B\	.	.
16G#\	8eee 8ee\	.
16E\JJ)	.	.
4D\	8ee 8e/)	]
.	8r	.
8r	8ddd#X 8dd#X\	.
=45	=45	=45
16C#\LL	4fff# 4ff#\	.
16E\	.	.
16F##X\	.	.
16A#X\	.	.
16F##\	8eee 8ee\	.
16E\JJ	.	.
4C#/	8ee 8e/	.
.	8r	.
8r	8ee\	.
!!LO:PB:g=original
=46	=46	=46
16D\LL	8ee\L	.
16F#\	.	.
16B\	8dd\	.
16d\J	.	.
8f#\J	8cc#\J	.
16EE/LL	8b\L	.
16BB/	.	.
16D/	8.cc#\	.
16E/J	.	.
8G#/J	.	.
.	16b\Jk	.
=47	=47	=47
16AA\LL	4a/	.
16E\	.	.
16c#\	.	.
16E\	.	.
16c#\	8r	.
16E\JJ	.	.
16AA\LL	4r	.
16E\	.	.
16cn\	.	.
16E\	.	.
16c\	8cccn 8ccn\	.
16E\JJ	.	.
=48	=48	=48
16AA\LL	4bb 4b\	.
16E\	.	.
16cn\	.	.
16E\	.	.
16c\	8aa 8a\	.
16E\JJ	.	.
16AA\LL	4ggn 4gn\	.
16Fn\	.	.
16c\	.	.
16F\	.	.
16c\	8ffn 8fn\	.
16F\JJ	.	.
=49	=49	=49
16AA\LL	4.ee 4.e/	.
16F#X\	.	.
16cn\	.	.
16F#\	.	.
16c\	.	.
16F#\JJ	.	.
16AA/LL	8dd#X 8d#X/	.
16BB/J	.	.
8Cn/	8r	.
16BB/L	8dd#\	.
16AA/JJ	.	.
=50	=50	=50
!	!	!LO:HP:b
16EE/LL	(>8.ff#\L	>
16C#/	.	.
16E/	.	.
16A/J	16ee\L	]
8c#/J	16cc#\	.
.	16a\JJ)	.
!	!	!LO:HP:b
16EE/LL	(>8.ff#\L	>
16D/	.	.
16E/	.	.
16G#/J	16ee\L	.
8B/J	16dd\	]
.	16b\JJ)	.
=51	=51	=51
16AA\LL	(>4.b#X\	.
16C#\	.	.
16E\	.	.
16A\	.	.
16E\	.	.
16C#\JJ	.	.
16AA\LL	8cc#\)	.
16Cn\	.	.
16E\	8r	.
16A\J	.	.
8cn\J	8cccn 8ccn\	.
!!LO:LB:g=original
=52	=52	=52
16AA\LL	(>4bb 4b\	.
16Fn\	.	.
16cn\	.	.
16F\	.	.
16c\	8aa 8a\	.
16F\JJ	.	.
*rep	*	*
16AA\LL	4ggn 4gn\	.
16F\	.	.
16c\	.	.
16F\	.	.
16c\	8ffn 8fn\	.
16F\JJ	.	.
*Xrep	*	*
=53	=53	=53
16AA\LL	4.ee 4.e/)	.
16D#X\	.	.
16F#X\	.	.
16cn\	.	.
16F#\	.	.
16D#\JJ	.	.
16AA/LL	8dd#X 8d#X/	.
16BB/J	.	.
8Cn/	8r	.
16BB/L	8dd#X\	.
16AA/JJ	.	.
=54	=54	=54
*	*^	*
8EE/L	8.ee^</L	2ryy	.
16C#/L	.	.	.
16E/J	16cc#/L	.	.
8A/J	16a/	.	.
.	16f#/JJ	.	.
!LO:TX:b:t=P:problem:mixed beam	!LO:TUP:b:problem:klamra łukowa	!	!
8EE/L	24e/LL	.	.
.	24d#X/	.	.
.	24e/JJ	.	.
8e\	8.cc#/	8rc	.
8E/J	.	8g#X 8d#'\	.
.	16b/	.	.
*	*v	*v	*
=55	=55	=55
8c# 8A\	16.a 16.c#X/	.
.	32d#X/KLL	.
8r	16.e/	.
.	32f#/JK	.
8A#X 8F##X 8C#\	[<8e/J	.
8B 8G# 8D\	16.e/LL]	.
.	32d#X/K	.
8r	16.e/	.
.	32f#/JK	.
!LO:TX:t=P:cross-measure beam:problem	!	!
8A# 8F## 8C#\	[<8e/J	.
=56	=56	=56
8B 8G# 8D\	16.e/LL]	.
.	32d#X/K	.
8r	16.e/	.
.	32f#/JK	.
!LO:SIC:v:t=custos D	!LO:SIC:v:t=custos b	!
8A#X 8F##X 8C#\	8e/J	.
!!LO:LB:g=original
8BL 8G# 8D\L	16ee/LL	pp
.	(<16ee/	.
8B 8G# 8D#X\	16dd#X/)	.
.	(<16dd#/	.
8BJ 8G# 8E\J	16ddn/)	.
.	(<16dd/JJ	.
=57	=57	=57
*	*^	*
!	!	!	!LO:DY:b:rj
8BL 8E#X\	4.cc#/)	16g#\LL	ppp
.	.	16g#\	.
8B 8F#\	.	16f#\	.
.	.	16f#\	.
8BJ 8G#\	.	16e#X\	.
.	.	16e#\JJ	.
(>4c# 4A#X\	(>4ee 4cc#/	4gn 4e#\	.
8d 8B\)	8dd 8b/)	8f#\	.
=58	=58	=58	=58
4D/	16rb	4ryy	.
.	16f#/	.	.
.	(8cc#/L	.	.
8DD/	8b/J)	8fn 8d\	.
4E\	16rb	4ryy	.
.	16e/	.	.
.	8b/L	.	.
8EE/	8a/J	8e-X 8cn\	.
*	*v	*v	*
=59	=59	=59
4E\	16r	.
.	16A/	.
.	8f#XL 8d#X 8cn/	.
8EE/	8eJ 8d# 8B 8G#/	.
8AA/L	[<4.A/	.
8AA/	.	.
8AA/J	.	.
=60	=60	=60
!	!	!LO:HP:b
4.D 4.BB-X 4.FFn 4.DD/	16A/LL]	>
.	16B-X/	.
.	16d/	.
.	16fn/J	]
!LO:SIC:v:t=custos E	!LO:SIC:v:t=custos cc#	!
.	8b/J	.
!!LO:LB:g=original
!	!	!LO:HP:b
4.D 4.BBn 4.GG#X 4.EE/	16d#X/LL	>
.	16e/	.
.	16g#/	.
.	16b/J	.
.	8ee/J	]
=61	=61	=61
8C#L 8AA/	(>4.cc# (<4.a/	.
8E/	.	.
8E/J	.	.
8E/L	8a 8c#/))	.
8AA/	8r	.
8AA/J	8r	.
=62	=62	=62
!	!	!LO:HP:b
4.Fn 4.D 4.AA/	16A/LL	>
.	16B-X/	.
.	16d/	.
.	16gn/J	]
.	8fn/J	.
!	!	!LO:HP:b
4.E 4.D 4.EE/	16F##X/LL	>
.	16G#/	.
.	16B-/	.
.	16fn/J	.
.	8e/J	]
=63	=63	=63
*^	*	*
*	*2\right	*	*
8EL 8C#X/	N(<2.AA\	4.A/	pp
8E/	.	.	.
8E/J	.	.	.
8D#X/L	.	8aL 8f# 8B#X/	.
8E/	.	8a 8e 8c#/	.
8F#/J	.	8aJ 8d#X 8B#/	.
*v	*v	*	*
=64	=64	=64
4E\ 4AA\N)	4a 4e 4c#/	.
8r	8r	.
8AA 8AAA/	8A/	.
8r	8r	.
8r	8r	.
==	==	==
*-	*-	*-
!!!system-decoration: {(s1,s2)}
!!!RDF**kern: N = linked
!!!RDF**kern: > = above
!!!RDF**kern: < = below
!!!EED: Antoni Szymański
!!!EST: 2021-04-16
!!!AIN: 1 forte
!!!ENC: Mateusz Solarz
!!!END: 2021-03-30
